assets/icons/eye.svg

<svg width="10" height="10" viewBox="0 0 10 10" fill="none" xmlns="http://www.w3.org/2000/svg">
<path fill-rule="evenodd" clip-rule="evenodd" d="M5.00006 2.46875C3.89664 2.46875 2.84956 2.95608 2.13907 3.80031L1.58357 4.46038C1.3211 4.77225 1.3211 5.22775 1.58357 5.53962L2.13907 6.19969C2.84956 7.04392 3.89664 7.53125 5.00006 7.53125C6.10347 7.53125 7.15055 7.04392 7.86104 6.19969L8.41654 5.53962C8.67901 5.22775 8.67901 4.77225 8.41654 4.46038L7.86104 3.80031C7.15055 2.95608 6.10347 2.46875 5.00006 2.46875ZM4.37506 1.25802C3.13795 1.41416 1.99532 2.02984 1.18269 2.99544L0.627184 3.6555C-0.0267696 4.43255 -0.0267698 5.56744 0.627183 6.3445L1.18269 7.00457C2.13069 8.13101 3.52779 8.78125 5.00006 8.78125C6.47232 8.78125 7.86943 8.13101 8.81742 7.00457L9.37293 6.3445C10.0269 5.56744 10.0269 4.43255 9.37293 3.6555L8.81743 2.99544C7.86943 1.86899 6.47232 1.21875 5.00006 1.21875H4.37506V1.25802Z" fill="#D6D6ED"/>
<path opacity="0.33" d="M3.375 5C3.375 4.10254 4.10254 3.375 5 3.375C5.89746 3.375 6.625 4.10254 6.625 5C6.625 5.89746 5.89746 6.625 5 6.625C4.10254 6.625 3.375 5.89746 3.375 5Z" fill="#D6D6ED"/>
</svg>

<svg xmlns="http://www.w3.org/2000/svg" width="10" height="10" fill="none" viewBox="0 0 10 10"><path fill="#D6D6ED" fill-rule="evenodd" d="M5 2.469A3.74 3.74 0 0 0 2.14 3.8l-.556.66a.84.84 0 0 0 0 1.08l.555.66a3.74 3.74 0 0 0 5.722 0l.556-.66a.84.84 0 0 0 0-1.08L7.86 3.8A3.74 3.74 0 0 0 5 2.469m-.625-1.211a5 5 0 0 0-3.192 1.737l-.556.66a2.09 2.09 0 0 0 0 2.69l.556.66a4.99 4.99 0 0 0 7.634 0l.556-.66a2.09 2.09 0 0 0 0-2.69l-.556-.66A4.99 4.99 0 0 0 5 1.22h-.625z" clip-rule="evenodd"/><path fill="#D6D6ED" d="M3.375 5a1.625 1.625 0 1 1 3.25 0 1.625 1.625 0 0 1-3.25 0" opacity=".33"/></svg>
